X:1
T:6 Lieder, Op.15
T:Wiegenlied
T:3. Wiegenlied
T:Johanna Kinkel
T:(Unknown)
T:6 Lieder, Op.15 (für Alt oder Bariton) 
T:Creative Commons copyright waiver (CC0 1.0 Universal)
C:Johanna Kinkel  (1846 edition originally published under the name J. Mathieux)
Z:Johanna Kinkel
Z:Creative Commons copyright waiver (CC0 1.0 Universal)
L:1/8
Q:1/4=94
M:2/4
K:Eb
V:1 treble nm="Gesang\nVoice"
V:1
"^Andantino" z4 | z4 | z4 | z4 || G E G B | c3/2 B/ B2 | G c c/B/ =A/G/ | B/=A/ G/A/ G2 | %8
w: ||||1. Schlaf du hol- des|süs- ses Kind;|Draus- sen weht * der *|Früh- * lings- * wind|
w: ||||2. Schlumm'- re * *||Draus- sen * * * *||
w: ||||3. Schlumm'- re * *||Mut- ter- treu- * e *||
w: ||||4. Eng- lein * *||Sanf- ten Kuss * * *||
 B/c/ B/c/ B/c/ B/c/ | B/A/ F/A/ G2 | B A/G/ A A | c B/=A/ B2- | B4- | B4 | B F B G | B F/A/ G2 | %16
w: Flüs- * tert * leis * dir *|Mär- * chen * zu,|wiegt dich * sanft da-|mit zur * Ruh|_||lu- la lei- la|li- la- * lu|
w: |||ar- tig * sein|_||||
w: |||ste- chen * will|_||||
w: |||gan- zen * Welt|_||||
 c A G A/G/ | G/F/ E/F/ G2 | B/c/ B/F/ B/c/ B/G/ | B/A/ F/A/ G2 | c/e/ c/A/ (!turn!G c/) B/ | %21
w: schlumm- re sanft mein *|Lieb- * chen * Du,|lu- * la, * lei- * la, *|li- * la- * lu|schlumm- * re * sanft * mein|
w: |||||
w: |||||
w: |||||
 B3/2 D/ E2 :| %22
w: Lieb- chen Du.|
w: |
w: |
w: |

